X:55
T:March of 4 Dragoons Gards. JBs.055
T:4th Dragoons Guards March,aka. JBs.055
S:Jas.Blackshaw MS, 1837, N.Shropshire
Z:T. Weatherall 2006
M:4/4
L:1/8
Q:1/4=100
A:North Shropshire
R:March
K:G
G2G>GG2 Bc|dB G>G G2 cd|e>c g2d>Bg2|gfag fedc|!
B>dB>G A>cA>F|GBcd efga|bgfg fed^c|d2d>dd2 z2:|!
|:a2 a>a acâ€™ba|g2g>g gbag|fedg fedc|B2A>A A2z2|!
G2 G>G GBcd|ec a2f>d g2|B>dc>e A>cD>F|G2G>G G2z2:|!
|:B4A2A>A|G4FGAB|(dc)cc cBBB|dccc A2z2|!
d4 c2c>c|B4ABcd|e>cc>A A>GG>F|F4G2z2:|!
|:â€soloâ€f2a>ae2z2|g2b>bg2z2|dBcd efga|g4f2z2|!
B4A2A>A|d2d>dc2c2|B2(3AcA G2F2|F4G2z2:|

